dist/icons/svgs/mars-outline.svg

<svg xmlns="http://www.w3.org/2000/svg" width="24" height="24" fill="currentcolor" class="icon-mars-outline" viewBox="0 0 24 24">
  <path d="M15.4375 3.25H19.8125C20.3203 3.25 20.75 3.67969 20.75 4.1875V8.5625C20.75 9.10938 20.3203 9.5 19.8125 9.5C19.2656 9.5 18.875 9.10938 18.875 8.5625V6.45312L15.5938 9.73438C16.4531 10.9062 17 12.3516 17 13.875C17 17.7031 13.9141 20.75 10.125 20.75C6.29688 20.75 3.25 17.7031 3.25 13.875C3.25 10.0859 6.29688 7 10.125 7C11.6484 7 13.0938 7.54688 14.2656 8.40625L17.5469 5.125H15.4375C14.8906 5.125 14.5 4.73438 14.5 4.1875C14.5 3.67969 14.8906 3.25 15.4375 3.25ZM5.125 13.875C5.125 15.6719 6.0625 17.3125 7.625 18.2109C9.14844 19.1094 11.0625 19.1094 12.625 18.2109C14.1484 17.3125 15.125 15.6719 15.125 13.875C15.125 12.1172 14.1484 10.4766 12.625 9.57812C11.0625 8.67969 9.14844 8.67969 7.625 9.57812C6.0625 10.4766 5.125 12.1172 5.125 13.875Z"/>
</svg>

<svg xmlns="http://www.w3.org/2000/svg" width="24" height="24" fill="currentColor" class="icon-mars-outline" viewBox="0 0 24 24">
  <path d="M15.438 3.25h4.374a.95.95 0 0 1 .938.938v4.375c0 .546-.43.937-.937.937-.547 0-.938-.39-.938-.937v-2.11l-3.281 3.281c.86 1.172 1.406 2.618 1.406 4.141a6.86 6.86 0 0 1-6.875 6.875 6.836 6.836 0 0 1-6.875-6.875A6.86 6.86 0 0 1 10.125 7c1.523 0 2.969.547 4.14 1.406l3.282-3.281h-2.11c-.546 0-.937-.39-.937-.937 0-.508.39-.938.938-.938M5.124 13.875a4.97 4.97 0 0 0 2.5 4.336c1.523.898 3.438.898 5 0 1.523-.898 2.5-2.54 2.5-4.336 0-1.758-.977-3.398-2.5-4.297-1.562-.898-3.477-.898-5 0a4.96 4.96 0 0 0-2.5 4.297"/>
</svg>
